docs/.gitbook/assets/icon-paperclip-16@dark.svg

<svg width="32" height="32" viewBox="0 0 16 16" fill="none" xmlns="http://www.w3.org/2000/svg">
<rect x="0" y="0" width="16" height="16" fill="#181c1f"/>
<path fill-rule="evenodd" clip-rule="evenodd" d="M12.7128 3.2509C11.6292 2.2497 9.84963 2.2497 8.76603 3.2509L3.80131 7.83812C2.06623 9.44127 2.06623 12.0141 3.80132 13.6172L3.29234 14.1681L3.80132 13.6172L3.88997 13.6991C4.1942 13.9802 4.21295 14.4547 3.93185 14.759C3.65075 15.0632 3.17625 15.082 2.87202 14.8009L2.78337 14.7189C0.405546 12.5219 0.405543 8.93342 2.78337 6.7364L7.74808 2.14918C9.40643 0.616937 12.0724 0.61694 13.7307 2.14919L13.2329 2.68797L13.7307 2.14919C15.4128 3.70336 15.4605 6.22586 13.7618 7.79826L9.01259 12.2735L9.00723 12.2786L9.00721 12.2785C8.03435 13.1774 6.47976 13.1774 5.5069 12.2785L6.01588 11.7277L5.5069 12.2785C4.50005 11.3482 4.50005 9.8135 5.5069 8.88321L5.50698 8.88314L9.4911 5.20298C9.79537 4.92192 10.2699 4.94074 10.5509 5.24501C10.832 5.54928 10.8132 6.02378 10.5089 6.30484L6.52485 9.98492C6.52482 9.98495 6.5248 9.98497 6.52477 9.98499C6.16073 10.3214 6.16076 10.8404 6.52485 11.1768C6.92219 11.5439 7.58855 11.5447 7.98694 11.179L12.7356 6.70416L12.741 6.69911L12.741 6.69914C13.7814 5.73791 13.7717 4.22933 12.7128 3.2509Z" fill="#fff"/>
</svg>

<svg xmlns="http://www.w3.org/2000/svg" width="32" height="32" fill="none" viewBox="0 0 16 16"><path fill="#181c1f" d="M0 0h16v16H0z"/><path fill="#fff" fill-rule="evenodd" d="M12.713 3.25c-1.084-1-2.863-1-3.947 0L3.801 7.839c-1.735 1.603-1.735 4.176 0 5.78l-.509.55.51-.55.088.081a.75.75 0 0 1-1.018 1.102l-.089-.082c-2.377-2.197-2.377-5.786 0-7.983L7.748 2.15c1.658-1.532 4.324-1.532 5.983 0l-.498.539.498-.539c1.682 1.554 1.73 4.077.03 5.65l-4.748 4.475-.006.005c-.973.898-2.527.898-3.5 0l.509-.551-.51.55a2.286 2.286 0 0 1 0-3.395h.001l3.984-3.68a.75.75 0 1 1 1.018 1.102l-3.984 3.68a.787.787 0 0 0 0 1.192 1.11 1.11 0 0 0 1.462.002l4.749-4.475.005-.005c1.04-.961 1.03-2.47-.028-3.448" clip-rule="evenodd"/></svg>
